X: 1
T:Young Hamish  "CYMRU"
M:3/4
L:1/8
Q:80
C:J.McLellan
S:Retreat
K:HP
|: | {g}A3/2B/2{Gdc}d2f2|
{gef}e3/2d/2{gBd}B2{G}A2|
{g}A3/2B/2{Gdc}d2f2|  !
{ag}a3/2f/2{gef}e2{Gdc}d2| |
{g}e3/2f/2{gf}g2{afg}f3/2e/2|
{ag}a3/2f/2{g}B2{Gdc}d2|  !
{gcd}cd{g}A2{GAG}A/2f3/2|
{gef}e3/2c/2{Gdc}d4:| |
{g}A3/2B/2{Gdc}d2f2|  !
{ag}a3/2g/2{afg}f2e2|
{g}A3/2c/2{gef}e2{A}eg|
{afg}f3/2c/2{gef}e2{Gdc}d2| |  !
{gdc}d3/2c/2{g}B2{GdG}B/2d3/2|
{gef}e3/2d/2{gfg}f2{AGAG}A2|
{g}B/2d3/2{g}A2{GAG}A/2f3/2|  !
{gef}e3/2c/2{Gdc}d4:|
